docs/themes/v2/source/images/new/logo3.svg

<svg fill="none" height="56" viewBox="0 0 84 56" width="84" xmlns="http://www.w3.org/2000/svg"><path clip-rule="evenodd" d="m31.3183 7.48179v-7.48179h52.6816v55.5569h-52.6198v-6.5234c1.113.1237 2.226.1855 3.4008.1855 12.1811 0 33.6681-6.2142 42.8812-13.9433-.7465-.7465-3.0664-2.0236-5.2737-3.2388-1.8151-.9993-3.5541-1.9566-4.2795-2.5426-9.7078 8.3475-19.7247 15.4273-33.5753 15.4273-1.0512 0-2.1333-.0927-3.1844-.2164v-4.6374c1.2676.2164 2.5351.34 3.8336.34 14.8709 0 29.1543-17.375 29.1543-17.375s-12.4594-16.29301-31.5348-15.64376zm0 4.08281v5.0056c.9275-.0927 1.855-.1546 2.7825-.1237 8.7802 0 14.0051 6.8326 14.0051 6.8326l-7.1417 5.9978c-.186-.3125-.3649-.6147-.5378-.9069l-.0007-.0012c-2.7871-4.7095-4.0408-6.8281-9.0765-7.4394v15.2109c1.2985.4329 2.6588.6493 4.05.6493 10.4189 0 20.1267-13.4796 20.1267-13.4796s-8.9967-12.2429-22.7236-11.8101c-.4844 0-.9687.0296-1.453.0599v-4.07857c-16.8186 1.36032-31.3493 15.58187-31.3493 15.58187s8.22378 23.8057 31.3184 25.9699v-4.3283c-16.9422-2.1023-22.72362-20.7759-22.72362-20.7759s7.56422-11.1765 22.72352-12.3642zm0 0v-.0029c.0103-.0006.0207-.0013.031-.0019v.0024c-.0103.0008-.0207.0016-.031.0024zm-.0001 24.5767v3.9573c-12.7994-2.2878-16.3548-15.6128-16.3548-15.6128s6.1524-6.8016 16.3548-7.9146v4.3283h-.0309c-5.3485-.6492-9.5532 4.3592-9.5532 4.3592s2.3806 8.4402 9.5841 10.8826z" fill="#86b737" fill-rule="evenodd"/></svg>

<svg width="84" height="56" viewBox="0 0 84 56" fill="none" xmlns="http://www.w3.org/2000/svg">
<path fill-rule="evenodd" clip-rule="evenodd" d="M31.3183 7.48179V0H83.9999V55.5569H31.3801V49.0335C32.4931 49.1572 33.6061 49.219 34.7809 49.219C46.962 49.219 68.449 43.0048 77.6621 35.2757C76.9156 34.5292 74.5957 33.2521 72.3884 32.0369L72.3884 32.0369C70.5733 31.0376 68.8343 30.0803 68.1089 29.4943C58.4011 37.8418 48.3842 44.9216 34.5336 44.9216C33.4824 44.9216 32.4003 44.8289 31.3492 44.7052V40.0678C32.6168 40.2842 33.8843 40.4078 35.1828 40.4078C50.0537 40.4078 64.3371 23.0328 64.3371 23.0328C64.3371 23.0328 51.8777 6.73979 32.8023 7.38904L31.3183 7.48179ZM31.3183 11.5646V16.5702C32.2458 16.4775 33.1733 16.4156 34.1008 16.4465C42.881 16.4465 48.1059 23.2791 48.1059 23.2791L40.9642 29.2769C40.7782 28.9644 40.5993 28.6622 40.4264 28.37L40.4257 28.3688C37.6386 23.6593 36.3849 21.5407 31.3492 20.9294V36.1403C32.6477 36.5732 34.008 36.7896 35.3992 36.7896C45.8181 36.7896 55.5259 23.31 55.5259 23.31C55.5259 23.31 46.5292 11.0671 32.8023 11.4999C32.3179 11.4999 31.8336 11.5295 31.3493 11.5598V7.48123C14.5307 8.84155 0 23.0631 0 23.0631C0 23.0631 8.22378 46.8688 31.3184 49.033V44.7047C14.3762 42.6024 8.59478 23.9288 8.59478 23.9288C8.59478 23.9288 16.159 12.7523 31.3183 11.5646ZM31.3183 11.5646V11.5617C31.3286 11.5611 31.339 11.5604 31.3493 11.5598V11.5622C31.339 11.563 31.3286 11.5638 31.3183 11.5646ZM31.3182 36.1413V40.0986C18.5188 37.8108 14.9634 24.4858 14.9634 24.4858C14.9634 24.4858 21.1158 17.6842 31.3182 16.5712V20.8995H31.2873C25.9388 20.2503 21.7341 25.2587 21.7341 25.2587C21.7341 25.2587 24.1147 33.6989 31.3182 36.1413Z" fill="#86B737"/>
</svg>
